X: 26278
T: Melissa's Met Her Match
R: reel
M: 4/4
K: Amixolydian
eA A/A/A ed cd|eA cA dG Bd|eA A/A/A ed cd|ea ga ge fd|
eA AA ed cd|eA cA DG Bd|eA A/A/A ed cd|ea ge d2 cd:|
ea a/a/a bg ag|eA cA dG Bd|ea a/a/a bg ag|ed ea g2 fg|
ea a/a/a bg ag|eA cA dG Bd|ea a/a/a ed cd|ea ge d2 cd:|

